X: 18414
T: Hunter's Moon, The
R: jig
M: 6/8
K: Gmajor
|:gfe eBB|gfe eBB|GBd GBd|efg {g}fed|
efg ~a3|bgb afe|dBG dBG|AGE {F}G3:|
|:GAB BAG|{g}e2d BAG|DFA AFD|{c}A2F FED|
GAB BAG|{g}e2d BAG|dBG dBG|AGE GFG:|

